X:11
T: Wreck of the Old '97
M:4/4
L:1/4
K:C clef=treble 
"C"E- E | G G2 A | "C7" E-C D C | F F F F | "F"A c "F#dim" c A | G G A A | "D7"d3/ d/ c2 | B4- | 
"G7"B2 A G | "C"c2 c c | "C7"c2 C C | F2 F3/ F/ | "F"A c c A | "C" G A G G | "D7" E E D2 | C4- | C z |
W:
W:They gave him his orders at Monroe, Virginia
W:They said, "Steve you're way behind time
W:This is not '38, this is old '97
W:Put her into Spencer on time"
W:
W:Then he turned around and said to his big greasy fireman
W:"Hey, shovel on a little more coal
W:And when we cross that White Oak Mountain
W:Watch old '97 roll"
W:
W:[BREAK FOR SOLOS]
W:
W:It's a mighty rough road from Lynchburg to Danville
W:In a line on a three mile grade
W:It was on that grade that he lost his air brakes
W:You see what a jump he made
W:
W:He was goin' down the grade makin' 90 miles an hour
W:His whistle broke into a scream
W:He was found in the wreck with his hand on the throttle
W:Scalded to death by the steam
W:
W:[BREAK FOR SOLOS]
W:
W:Well now, all you ladies, you better take a warnin'
W:From this time on and learn
W:Never speak harsh words to your true lover husband
W:He may leave you and never return
W:
